assets/react-fill.svg

<svg xmlns="http://www.w3.org/2000/svg" fill="none" viewBox="0 0 40 36">
  <path fill="#2A2238" d="M11.987 35.503c-.8555 0-1.6345-.196-2.316-.582-1.14-.6465-1.928-1.7605-2.343-3.31-.4825-1.8035-.425-4.199.166-6.939C2.728 23.0325 0 20.517 0 17.7515c0-2.766 2.7275-5.281 7.4935-6.92-.591-2.7405-.649-5.136-.1665-6.9395.415-1.55 1.203-2.664 2.3425-3.31C10.3505.196 11.13 0 11.9855 0c2.194 0 4.9455 1.365 7.7655 3.849 2.82-2.4815 5.5705-3.84550002 7.762-3.84550002.8555 0 1.6345.19600002 2.316.58200002 1.1385.6455 1.927 1.7575 2.342 3.3055.483 1.803.425 4.199-.1665 6.94 4.767 1.639 7.4955 4.1545 7.4955 6.9205s-2.7285 5.2815-7.4955 6.921c.591 2.7405.649 5.136.166 6.939-.415 1.5485-1.2025 2.6605-2.34 3.306-.682.386-1.4615.582-2.3165.582-2.193 0-4.9445-1.364-7.7635-3.8445-2.82 2.4835-5.571 3.848-7.7635 3.848ZM9.4185 25.2545c-.4955 2.3585-.551 4.3735-.158 5.8395.271 1.013.7405 1.7155 1.397 2.0875.3765.2135.824.322 1.3295.322 1.697 0 3.931-1.141 6.3105-3.2185-1.1925-1.201-2.3565-2.5605-3.464-4.0455-1.9155-.208-3.7355-.539-5.415-.985ZM21.203 30.284c2.379 2.0755 4.6135 3.2155 6.3105 3.216.5055 0 .953-.1085 1.3305-.322.6545-.371 1.123-1.072 1.3935-2.0835.393-1.467.338-3.4815-.1575-5.8395-1.681.446-3.5015.777-5.4165.985-1.107 1.485-2.2695 2.844-3.4605 4.044Zm-3.67-3.836c.726.888 1.469 1.7165 2.217 2.47.746-.753 1.4895-1.5815 2.215-2.47-.7455.0355-1.488.0535-2.215.0535-.7275 0-1.4705-.018-2.217-.0535Zm-1.6085-2.107c1.2475.1065 2.534.1605 3.8255.1605 1.2925 0 2.5775-.054 3.823-.16.743-1.042 1.4515-2.134 2.107-3.2475.634-1.0775 1.2305-2.202 1.7735-3.343-.5415-1.138-1.1375-2.262-1.773-3.342-.654-1.111-1.3625-2.203-2.1075-3.2475-1.2445-.106-2.5295-.16-3.823-.16-1.294 0-2.5795.054-3.8235.1605-.745 1.043-1.4545 2.135-2.1095 3.2475-.635 1.0795-1.231 2.2035-1.773 3.343.541 1.137 1.137 2.261 1.7725 3.342.652 1.1075 1.3605 2.199 2.108 3.2465Zm12.571-4.2c-.353.673-.719 1.333-1.0925 1.967-.3765.641-.777 1.284-1.193 1.918 1.187-.183 2.3225-.4175 3.3855-.7-.295-1.0245-.6645-2.093-1.1-3.185ZM9.902 23.3255c1.0635.282 2.1985.517 3.384.7-.4185-.638-.819-1.2815-1.193-1.9175-.3725-.6335-.739-1.2925-1.0915-1.9655-.4335 1.087-.8025 2.1545-1.0995 3.183Zm19.756-5.574c.764 1.6955 1.3865 3.3715 1.854 4.9885 3.701-1.302 5.988-3.2015 5.988-4.9885 0-1.787-2.287-3.6865-5.988-4.9885-.4665 1.617-1.0895 3.293-1.854 4.9885ZM7.986 12.764C4.2865 14.0655 2 15.965 2 17.7515c0 1.787 2.2865 3.6865 5.987 4.988.467-1.6175 1.0895-3.2935 1.8525-4.987-.7635-1.694-1.386-3.37-1.8535-4.9885Zm1.9155-.5865c.297 1.027.666 2.095 1.1 3.184.352-.671.718-1.3305 1.092-1.966.376-.6395.7765-1.2825 1.194-1.918-1.187.1825-2.322.4175-3.386.7Zm16.3095-.7005c.4185.6385.819 1.2815 1.193 1.9185.373.6335.7395 1.293 1.0925 1.966.4345-1.0885.8035-2.1565 1.1005-3.1845-1.065-.2825-2.2-.5175-3.386-.7ZM11.9855 2c-.5055 0-.9525.108-1.3285.322-.656.372-1.126 1.0745-1.3975 2.0875-.3925 1.4675-.3375 3.482.1585 5.8395 1.68-.446 3.501-.7775 5.417-.9855 1.1085-1.4855 2.2725-2.844 3.4635-4.044C15.9185 3.141 13.683 2 11.9855 2ZM24.664 9.263c1.915.208 3.7355.539 5.4165.985.496-2.358.5515-4.373.158-5.84-.271-1.011-.74-1.712-1.395-2.083-.377-.2135-.8245-.322-1.3305-.322-1.6965 0-3.93 1.1405-6.3095 3.2165 1.19 1.1995 2.353 2.5585 3.4605 4.0435Zm-4.914-.2615c.727 0 1.4695.018 2.2155.0535-.725-.887-1.468-1.715-2.2145-2.469-.7485.755-1.491 1.583-2.216 2.469.7455-.0355 1.488-.0535 2.215-.0535Z"/>
  <path fill="#2A2238" d="M23.5 18.25c0 1.7965-1.4535 3.25-3.25 3.25S17 20.0465 17 18.25 18.4535 15 20.25 15s3.25 1.4535 3.25 3.25Z"/>
</svg>

<svg width="40" height="36" viewBox="0 0 40 36" fill="none" xmlns="http://www.w3.org/2000/svg">
<path d="M11.987 35.503C11.1315 35.503 10.3525 35.307 9.671 34.921C8.531 34.2745 7.743 33.1605 7.328 31.611C6.8455 29.8075 6.903 27.412 7.494 24.672C2.728 23.0325 0 20.517 0 17.7515C0 14.9855 2.7275 12.4705 7.4935 10.8315C6.9025 8.091 6.8445 5.6955 7.327 3.892C7.742 2.342 8.53 1.228 9.6695 0.582C10.3505 0.196 11.13 0 11.9855 0C14.1795 0 16.931 1.365 19.751 3.849C22.571 1.3675 25.3215 0.00349998 27.513 0.00349998C28.3685 0.00349998 29.1475 0.1995 29.829 0.5855C30.9675 1.231 31.756 2.343 32.171 3.891C32.654 5.694 32.596 8.09 32.0045 10.831C36.7715 12.47 39.5 14.9855 39.5 17.7515C39.5 20.5175 36.7715 23.033 32.0045 24.6725C32.5955 27.413 32.6535 29.8085 32.1705 31.6115C31.7555 33.16 30.968 34.272 29.8305 34.9175C29.1485 35.3035 28.369 35.4995 27.514 35.4995C25.321 35.4995 22.5695 34.1355 19.7505 31.655C16.9305 34.1385 14.1795 35.503 11.987 35.503ZM9.4185 25.2545C8.923 27.613 8.8675 29.628 9.2605 31.094C9.5315 32.107 10.001 32.8095 10.6575 33.1815C11.034 33.395 11.4815 33.5035 11.987 33.5035C13.684 33.5035 15.918 32.3625 18.2975 30.285C17.105 29.084 15.941 27.7245 14.8335 26.2395C12.918 26.0315 11.098 25.7005 9.4185 25.2545ZM21.203 30.284C23.582 32.3595 25.8165 33.4995 27.5135 33.5C28.019 33.5 28.4665 33.3915 28.844 33.178C29.4985 32.807 29.967 32.106 30.2375 31.0945C30.6305 29.6275 30.5755 27.613 30.08 25.255C28.399 25.701 26.5785 26.032 24.6635 26.24C23.5565 27.725 22.394 29.084 21.203 30.284ZM17.533 26.448C18.259 27.336 19.002 28.1645 19.75 28.918C20.496 28.165 21.2395 27.3365 21.965 26.448C21.2195 26.4835 20.477 26.5015 19.75 26.5015C19.0225 26.5015 18.2795 26.4835 17.533 26.448ZM15.9245 24.341C17.172 24.4475 18.4585 24.5015 19.75 24.5015C21.0425 24.5015 22.3275 24.4475 23.573 24.3415C24.316 23.2995 25.0245 22.2075 25.68 21.094C26.314 20.0165 26.9105 18.892 27.4535 17.751C26.912 16.613 26.316 15.489 25.6805 14.409C25.0265 13.298 24.318 12.206 23.573 11.1615C22.3285 11.0555 21.0435 11.0015 19.75 11.0015C18.456 11.0015 17.1705 11.0555 15.9265 11.162C15.1815 12.205 14.472 13.297 13.817 14.4095C13.182 15.489 12.586 16.613 12.044 17.7525C12.585 18.8895 13.181 20.0135 13.8165 21.0945C14.4685 22.202 15.177 23.2935 15.9245 24.341ZM28.4955 20.141C28.1425 20.814 27.7765 21.474 27.403 22.108C27.0265 22.749 26.626 23.392 26.21 24.026C27.397 23.843 28.5325 23.6085 29.5955 23.326C29.3005 22.3015 28.931 21.233 28.4955 20.141ZM9.902 23.3255C10.9655 23.6075 12.1005 23.8425 13.286 24.0255C12.8675 23.3875 12.467 22.744 12.093 22.108C11.7205 21.4745 11.354 20.8155 11.0015 20.1425C10.568 21.2295 10.199 22.297 9.902 23.3255ZM29.658 17.7515C30.422 19.447 31.0445 21.123 31.512 22.74C35.213 21.438 37.5 19.5385 37.5 17.7515C37.5 15.9645 35.213 14.065 31.512 12.763C31.0455 14.38 30.4225 16.056 29.658 17.7515ZM7.986 12.764C4.2865 14.0655 2 15.965 2 17.7515C2 19.5385 4.2865 21.438 7.987 22.7395C8.454 21.122 9.0765 19.446 9.8395 17.7525C9.076 16.0585 8.4535 14.3825 7.986 12.764ZM9.9015 12.1775C10.1985 13.2045 10.5675 14.2725 11.0015 15.3615C11.3535 14.6905 11.7195 14.031 12.0935 13.3955C12.4695 12.756 12.87 12.113 13.2875 11.4775C12.1005 11.66 10.9655 11.895 9.9015 12.1775ZM26.211 11.477C26.6295 12.1155 27.03 12.7585 27.404 13.3955C27.777 14.029 28.1435 14.6885 28.4965 15.3615C28.931 14.273 29.3 13.205 29.597 12.177C28.532 11.8945 27.397 11.6595 26.211 11.477ZM11.9855 2C11.48 2 11.033 2.108 10.657 2.322C10.001 2.694 9.531 3.3965 9.2595 4.4095C8.867 5.877 8.922 7.8915 9.418 10.249C11.098 9.803 12.919 9.4715 14.835 9.2635C15.9435 7.778 17.1075 6.4195 18.2985 5.2195C15.9185 3.141 13.683 2 11.9855 2ZM24.664 9.263C26.579 9.471 28.3995 9.802 30.0805 10.248C30.5765 7.89 30.632 5.875 30.2385 4.408C29.9675 3.397 29.4985 2.696 28.8435 2.325C28.4665 2.1115 28.019 2.003 27.513 2.003C25.8165 2.003 23.583 3.1435 21.2035 5.2195C22.3935 6.419 23.5565 7.778 24.664 9.263ZM19.75 9.0015C20.477 9.0015 21.2195 9.0195 21.9655 9.055C21.2405 8.168 20.4975 7.34 19.751 6.586C19.0025 7.341 18.26 8.169 17.535 9.055C18.2805 9.0195 19.023 9.0015 19.75 9.0015Z" fill="#2A2238"/>
<path d="M23.5 18.25C23.5 20.0465 22.0465 21.5 20.25 21.5C18.4535 21.5 17 20.0465 17 18.25C17 16.4535 18.4535 15 20.25 15C22.0465 15 23.5 16.4535 23.5 18.25Z" fill="#2A2238"/>
</svg>
